assets/eye.svg

<svg fill="none" height="30" viewBox="0 0 30 30" width="30" xmlns="http://www.w3.org/2000/svg"><path d="m24.92 14.6c-2.02-4.69-5.82-7.6-9.92-7.6s-7.89999 2.91-9.91999 7.6c-.05507.1262-.08349.2623-.08349.4s.02842.2738.08349.4c2.02 4.69 5.81999 7.6 9.91999 7.6s7.9-2.91 9.92-7.6c.0551-.1262.0835-.2623.0835-.4s-.0284-.2738-.0835-.4zm-9.92 6.4c-3.17 0-6.16999-2.29-7.89999-6 1.73-3.71 4.72999-6 7.89999-6s6.17 2.29 7.9 6c-1.73 3.71-4.73 6-7.9 6zm0-10c-.7911 0-1.5645.2346-2.2223.6741s-1.1705 1.0643-1.4732 1.7952c-.3028.7309-.382 1.5351-.2276 2.3111.1543.7759.5353 1.4886 1.0947 2.048s1.2721.9404 2.048 1.0947c.776.1544 1.5802.0752 2.3111-.2276.7309-.3027 1.3557-.8154 1.7952-1.4732s.6741-1.4312.6741-2.2223c0-1.0609-.4214-2.0783-1.1716-2.8284-.7501-.7502-1.7675-1.1716-2.8284-1.1716zm0 6c-.3956 0-.7822-.1173-1.1111-.3371-.3289-.2197-.5853-.5321-.7367-.8975-.1513-.3655-.1909-.7676-.1138-1.1556.0772-.3879.2677-.7443.5474-1.024s.6361-.4702 1.024-.5474c.388-.0771.7901-.0375 1.1556.1138.3654.1514.6778.4078.8975.7367.2198.3289.3371.7155.3371 1.1111 0 .5304-.2107 1.0391-.5858 1.4142s-.8838.5858-1.4142.5858z" fill="#e9e8eb"/></svg>

<svg width="30" height="30" viewBox="0 0 30 30" fill="none" xmlns="http://www.w3.org/2000/svg">
<path d="M24.92 14.6C22.9 9.91 19.1 7 15 7C10.9 7 7.10001 9.91 5.08001 14.6C5.02494 14.7262 4.99652 14.8623 4.99652 15C4.99652 15.1377 5.02494 15.2738 5.08001 15.4C7.10001 20.09 10.9 23 15 23C19.1 23 22.9 20.09 24.92 15.4C24.9751 15.2738 25.0035 15.1377 25.0035 15C25.0035 14.8623 24.9751 14.7262 24.92 14.6V14.6ZM15 21C11.83 21 8.83001 18.71 7.10001 15C8.83001 11.29 11.83 9 15 9C18.17 9 21.17 11.29 22.9 15C21.17 18.71 18.17 21 15 21ZM15 11C14.2089 11 13.4355 11.2346 12.7777 11.6741C12.1199 12.1136 11.6072 12.7384 11.3045 13.4693C11.0017 14.2002 10.9225 15.0044 11.0769 15.7804C11.2312 16.5563 11.6122 17.269 12.1716 17.8284C12.731 18.3878 13.4437 18.7688 14.2196 18.9231C14.9956 19.0775 15.7998 18.9983 16.5307 18.6955C17.2616 18.3928 17.8864 17.8801 18.3259 17.2223C18.7654 16.5645 19 15.7911 19 15C19 13.9391 18.5786 12.9217 17.8284 12.1716C17.0783 11.4214 16.0609 11 15 11V11ZM15 17C14.6044 17 14.2178 16.8827 13.8889 16.6629C13.56 16.4432 13.3036 16.1308 13.1522 15.7654C13.0009 15.3999 12.9613 14.9978 13.0384 14.6098C13.1156 14.2219 13.3061 13.8655 13.5858 13.5858C13.8655 13.3061 14.2219 13.1156 14.6098 13.0384C14.9978 12.9613 15.3999 13.0009 15.7654 13.1522C16.1308 13.3036 16.4432 13.56 16.6629 13.8889C16.8827 14.2178 17 14.6044 17 15C17 15.5304 16.7893 16.0391 16.4142 16.4142C16.0391 16.7893 15.5304 17 15 17Z" fill="#E9E8EB"/>
</svg>
